www/assets/icons/double_arrow.svg

<svg width="24" height="24" viewBox="0 0 24 24" xmlns="http://www.w3.org/2000/svg" fill='currentColor'><path d="M15.25 5H10.75L15.75 12L10.75 19H15.25L20.25 12L15.25 5Z"/><path d="M8.25 5H3.75L8.75 12L3.75 19H8.25L13.25 12L8.25 5Z"/></svg>

<svg xmlns="http://www.w3.org/2000/svg" width="24" height="24" viewBox="0 0 24 24" fill='currentColor'><path d="M15.25 5h-4.5l5 7-5 7h4.5l5-7z"/><path d="M8.25 5h-4.5l5 7-5 7h4.5l5-7z"/></svg>
